static/img/common/ico-clue-connect.svg

<svg width="19" height="21" viewBox="0 0 19 21" fill="none" xmlns="http://www.w3.org/2000/svg">
<path d="M18 9.39L9.25002 0.5L0.500015 9.39H5.88002V14.84H12.61V9.39H18Z" fill="white" stroke="currentColor" stroke-linecap="round" stroke-linejoin="round"/>
<path d="M12.61 15.33H5.88002V16.72H12.61V15.33Z" fill="white" stroke="currentColor" stroke-linecap="round" stroke-linejoin="round"/>
<path d="M12.61 17.22H5.88002V18.61H12.61V17.22Z" fill="white" stroke="currentColor" stroke-linecap="round" stroke-linejoin="round"/>
<path d="M12.61 19.11H5.88002V20.5H12.61V19.11Z" fill="white" stroke="currentColor" stroke-linecap="round" stroke-linejoin="round"/>
</svg>

<svg xmlns="http://www.w3.org/2000/svg" width="19" height="21" fill="none" viewBox="0 0 19 21"><path fill="#fff" stroke="currentColor" stroke-linecap="round" stroke-linejoin="round" d="M18 9.39 9.25.5.5 9.39h5.38v5.45h6.73V9.39zM12.61 15.33H5.88v1.39h6.73zM12.61 17.22H5.88v1.39h6.73zM12.61 19.11H5.88v1.39h6.73z"/></svg>
